images/feature-icon-7.svg

<svg width="45" height="45" viewBox="0 0 45 45" fill="none" xmlns="http://www.w3.org/2000/svg">
<g clip-path="url(#clip0_1_1985)">
<path d="M32.3925 29.2589L31.7087 27.719C32.1389 26.9618 32.4723 26.1576 32.7033 25.3199L34.2745 24.7151C34.5459 24.6107 34.7251 24.3498 34.7251 24.0589V20.9403C34.7251 20.6494 34.5459 20.3886 34.2745 20.2841L32.7038 19.6795C32.4726 18.8413 32.1391 18.0367 31.7089 17.2795L32.3925 15.7402C32.5106 15.4744 32.4528 15.1633 32.2471 14.9577L30.0418 12.7525C29.8361 12.5468 29.5252 12.489 29.2593 12.6071L27.7195 13.291C26.9623 12.8608 26.158 12.5274 25.3203 12.2962L24.7155 10.7251C24.6111 10.4536 24.3503 10.2746 24.0594 10.2746H20.9408C20.6499 10.2746 20.3891 10.4537 20.2846 10.7251L19.6798 12.2963C18.8419 12.5275 18.0377 12.8608 17.2805 13.2911L15.7407 12.6072C15.4747 12.4891 15.1639 12.5469 14.9581 12.7526L12.7529 14.9578C12.5473 15.1635 12.4895 15.4745 12.6076 15.7404L13.2913 17.28C12.8611 18.0373 12.5278 18.8414 12.2966 19.6794L10.7256 20.2842C10.4542 20.3887 10.275 20.6494 10.275 20.9404V24.0589C10.275 24.3498 10.4542 24.6106 10.7256 24.7151L12.2963 25.3197C12.5277 26.1582 12.8611 26.9626 13.2913 27.7197L12.6076 29.2589C12.4895 29.5246 12.5473 29.8358 12.7529 30.0414L14.9582 32.2466C15.1639 32.4523 15.4748 32.5101 15.7408 32.3921L17.2807 31.7082C18.0379 32.1383 18.8422 32.4718 19.6799 32.7029L20.2847 34.2741C20.3891 34.5455 20.65 34.7246 20.9409 34.7246H24.0594C24.3504 34.7246 24.6111 34.5455 24.7156 34.2741L25.3202 32.7034C26.1584 32.4722 26.9628 32.1387 27.7203 31.7085L29.2595 32.3921C29.5254 32.5103 29.8363 32.4523 30.0421 32.2467L32.2472 30.0414C32.4527 29.8358 32.5105 29.5247 32.3925 29.2589ZM31.4286 24.6311C31.2037 25.5757 30.8309 26.4752 30.3202 27.3046C30.1987 27.502 30.1823 27.7467 30.2764 27.9586L30.9114 29.3884L29.389 30.9109L27.9598 30.2762C27.748 30.1821 27.5032 30.1984 27.3058 30.3201C26.4763 30.8309 25.5765 31.2038 24.6314 31.4286C24.4059 31.4822 24.2212 31.6437 24.138 31.8601L23.5767 33.3184H21.4237L20.8621 31.8595C20.7788 31.6432 20.5942 31.4818 20.3687 31.4281C19.4241 31.2033 18.5246 30.8304 17.6952 30.3197C17.4976 30.1981 17.2529 30.1818 17.0412 30.2758L15.6112 30.9109L14.0888 29.3884L14.7237 27.9591C14.8178 27.7471 14.8014 27.5025 14.6798 27.305C14.1691 26.4761 13.7962 25.5764 13.5712 24.6308C13.5176 24.4053 13.3562 24.2206 13.1398 24.1374L11.6814 23.576V21.423L13.1401 20.8614C13.3565 20.7781 13.5178 20.5935 13.5715 20.368C13.7963 19.4232 14.1692 18.5237 14.6798 17.6944C14.8015 17.4969 14.8178 17.2522 14.7238 17.0403L14.0888 15.6107L15.6112 14.0882L17.0411 14.7232C17.2528 14.8173 17.4976 14.8009 17.6951 14.6793C18.5245 14.1686 19.424 13.7956 20.3687 13.5709C20.5941 13.5172 20.7788 13.3558 20.862 13.1395L21.4236 11.6806H23.5767L24.1382 13.1395C24.2214 13.3558 24.4061 13.5172 24.6315 13.5709C25.5762 13.7957 26.4756 14.1687 27.3051 14.6793C27.5025 14.8009 27.7473 14.8173 27.9591 14.7232L29.389 14.0882L30.9114 15.6106L30.2766 17.0399C30.1825 17.2518 30.1989 17.4965 30.3205 17.694C30.8312 18.5233 31.2042 19.4229 31.4291 20.3681C31.4827 20.5936 31.6441 20.7783 31.8604 20.8615L33.3188 21.4229V23.576L31.86 24.1376C31.6437 24.221 31.4822 24.4055 31.4286 24.6311ZM22.5 15.5259C18.6547 15.5259 15.5263 18.6543 15.5263 22.4997C15.5263 26.345 18.6547 29.4734 22.5 29.4734C26.3453 29.4734 29.4738 26.345 29.4738 22.4997C29.4738 18.6543 26.3453 15.5259 22.5 15.5259ZM22.5 28.0672C19.4301 28.0672 16.9326 25.5696 16.9326 22.4997C16.9326 19.4297 19.4301 16.9321 22.5 16.9321C25.5699 16.9321 28.0675 19.4297 28.0675 22.4997C28.0675 25.5696 25.5699 28.0672 22.5 28.0672ZM37.3426 30.3879C33.508 30.3879 30.3884 33.5076 30.3884 37.3422C30.3884 41.1767 33.508 44.2965 37.3426 44.2965C41.1772 44.2965 44.2969 41.1768 44.2969 37.3422C44.2969 33.5077 41.1772 30.3879 37.3426 30.3879ZM37.3426 42.8903C34.2834 42.8903 31.7946 40.4015 31.7946 37.3422C31.7946 34.283 34.2834 31.7942 37.3426 31.7942C40.4018 31.7942 42.8906 34.283 42.8906 37.3422C42.8906 40.4015 40.4018 42.8903 37.3426 42.8903ZM40.0351 38.7207C40.1041 39.2895 39.9502 39.81 39.5902 40.2263C39.2351 40.6368 38.6812 40.9281 38.0457 41.0517V41.2979C38.0457 41.6862 37.7309 42.0011 37.3426 42.0011C36.9543 42.0011 36.6395 41.6862 36.6395 41.2979V41.0398C35.6479 40.8178 34.8899 40.1359 34.655 39.1938C34.5611 38.8171 34.7904 38.4354 35.1671 38.3416C35.5438 38.2475 35.9256 38.4769 36.0195 38.8537C36.1825 39.5071 36.8701 39.7237 37.4075 39.7108C37.8773 39.6997 38.327 39.5371 38.5265 39.3063C38.6254 39.1921 38.6601 39.0637 38.639 38.8902C38.6151 38.693 38.5589 38.2309 37.2344 38.0135C35.3275 37.7004 34.8816 36.6945 34.8434 35.9059C34.7916 34.8389 35.5105 33.9435 36.6395 33.6569V33.3865C36.6395 32.9982 36.9543 32.6833 37.3426 32.6833C37.7309 32.6833 38.0457 32.9982 38.0457 33.3865V33.6506C38.7766 33.8279 39.4665 34.3023 39.8312 35.171C39.9816 35.5291 39.8132 35.9412 39.4552 36.0915C39.0974 36.2418 38.6851 36.0736 38.5347 35.7154C38.2572 35.0548 37.5763 34.8852 37.0242 35.0106C36.8894 35.0412 36.2181 35.2248 36.2479 35.8377C36.2558 36 36.2768 36.4312 37.4621 36.6259C39.032 36.8835 39.8975 37.5883 40.0351 38.7207ZM14.6116 7.65702C14.6116 3.82244 11.492 0.702759 7.65738 0.702759C3.8228 0.702759 0.703125 3.82244 0.703125 7.65702C0.703125 11.4916 3.8228 14.6113 7.65738 14.6113C11.492 14.6113 14.6116 11.4916 14.6116 7.65702ZM2.10938 7.65702C2.10938 4.59781 4.59817 2.10901 7.65738 2.10901C10.7166 2.10901 13.2054 4.59781 13.2054 7.65702C13.2054 10.7162 10.7166 13.205 7.65738 13.205C4.59817 13.205 2.10938 10.7162 2.10938 7.65702ZM7.65747 12.3158C7.26917 12.3158 6.95435 12.001 6.95435 11.6127V11.3547C5.96259 11.1327 5.20471 10.4507 4.96978 9.50861C4.87591 9.13182 5.10522 8.7502 5.482 8.65633C5.85932 8.56229 6.24041 8.79177 6.33428 9.16847C6.49723 9.82185 7.18567 10.0377 7.72225 10.0257C8.19211 10.0145 8.64185 9.85191 8.84136 9.6212C8.94015 9.50694 8.97486 9.37853 8.95377 9.20503C8.92986 9.00772 8.8737 8.54577 7.54919 8.32824C5.64231 8.01517 5.19636 7.00935 5.15821 6.22071C5.10636 5.15363 5.8253 4.25829 6.95435 3.97167V3.70124C6.95435 3.31293 7.26917 2.99811 7.65747 2.99811C8.04577 2.99811 8.3606 3.31293 8.3606 3.70124V3.96535C9.09141 4.14262 9.78135 4.61714 10.146 5.48577C10.2964 5.84383 10.128 6.25595 9.76992 6.40624C9.41212 6.55645 8.99982 6.38832 8.84944 6.03016C8.57206 5.36958 7.89082 5.20039 7.33904 5.32537C7.20422 5.35595 6.53291 5.53956 6.56271 6.1525C6.57062 6.31484 6.59153 6.74594 7.77691 6.94062C9.34664 7.19832 10.2123 7.90311 10.3496 9.03558C10.4186 9.60423 10.2648 10.1248 9.90475 10.5411C9.54976 10.9515 8.99587 11.2429 8.36042 11.3664V11.6127C8.3606 12.0011 8.04577 12.3158 7.65747 12.3158ZM19.0969 5.95572C19.1104 5.74003 19.2226 5.54254 19.4007 5.4202L21.7446 3.81154C22.0648 3.59181 22.5024 3.67311 22.7222 3.99338C22.9419 4.31357 22.8605 4.75126 22.5404 4.97099L21.9879 5.35015C22.2071 5.36641 22.426 5.38601 22.6441 5.40895C28.3102 6.00423 33.4052 8.77042 36.9908 13.1979C40.5764 17.6254 42.2232 23.1841 41.6279 28.8502C41.5899 29.2114 41.2849 29.4799 40.9295 29.4799C40.905 29.4799 40.8801 29.4786 40.8552 29.476C40.4689 29.4355 40.1888 29.0895 40.2294 28.7033C40.7854 23.4108 39.2472 18.2186 35.898 14.083C32.5489 9.94745 27.7897 7.36364 22.4971 6.80755C22.228 6.77925 21.9573 6.75631 21.6864 6.73891L22.3896 7.36478C22.6797 7.623 22.7056 8.06738 22.4474 8.35742C22.1893 8.64746 21.7449 8.67338 21.4547 8.41525L19.3312 6.52534C19.1697 6.38146 19.0833 6.17149 19.0969 5.95572ZM28.0535 38.7338C28.0626 38.9498 27.9717 39.1579 27.8073 39.2982L25.6445 41.143C25.5121 41.2559 25.3499 41.3112 25.1885 41.3112C24.9897 41.3112 24.7923 41.2275 24.6531 41.0643C24.4012 40.7689 24.4364 40.3251 24.7319 40.0731L25.2417 39.6383C19.3005 39.8193 13.6843 37.5845 9.50098 33.4011C5.47233 29.3726 3.25371 24.0163 3.25371 18.319C3.25371 17.9307 3.56854 17.6159 3.95684 17.6159C4.34514 17.6159 4.65996 17.9307 4.65996 18.319C4.65996 29.3047 13.5974 38.2422 24.5831 38.2422C24.8534 38.2422 25.1254 38.2367 25.3965 38.2258L24.6317 37.6768C24.3163 37.4503 24.2441 37.011 24.4705 36.6956C24.6969 36.3801 25.1363 36.3079 25.4517 36.5344L27.761 38.1921C27.9366 38.3181 28.0445 38.5179 28.0535 38.7338Z" fill="white"/>
</g>
<defs>
<clipPath id="clip0_1_1985">
<rect width="45" height="45" fill="white" transform="translate(0 -0.000366211)"/>
</clipPath>
</defs>
</svg>

<svg xmlns="http://www.w3.org/2000/svg" width="45" height="45" fill="none"><g clip-path="url(#a)"><path fill="#fff" d="m32.393 29.259-.684-1.54c.43-.757.763-1.561.994-2.4l1.572-.604a.7.7 0 0 0 .45-.656V20.94c0-.29-.18-.551-.45-.656l-1.571-.604a10.5 10.5 0 0 0-.995-2.4l.683-1.54a.7.7 0 0 0-.145-.782l-2.205-2.206a.7.7 0 0 0-.783-.145l-1.54.684a10.5 10.5 0 0 0-2.399-.995l-.605-1.57a.7.7 0 0 0-.656-.451h-3.118c-.291 0-.552.179-.656.45l-.605 1.571c-.838.232-1.642.565-2.4.995l-1.54-.684a.7.7 0 0 0-.782.146l-2.205 2.205a.7.7 0 0 0-.145.782l.683 1.54c-.43.757-.763 1.561-.994 2.4l-1.571.604a.7.7 0 0 0-.451.656v3.119c0 .29.18.552.45.656l1.571.605c.232.838.565 1.643.995 2.4l-.683 1.539a.7.7 0 0 0 .145.782l2.205 2.206a.7.7 0 0 0 .783.145l1.54-.684c.757.43 1.561.764 2.399.995l.605 1.571c.104.271.365.45.656.45h3.118c.291 0 .552-.178.657-.45l.604-1.57a10.5 10.5 0 0 0 2.4-.995l1.54.683c.265.118.576.06.782-.145l2.205-2.206a.7.7 0 0 0 .145-.782m-.964-4.628a9.1 9.1 0 0 1-1.109 2.674.7.7 0 0 0-.044.654l.635 1.43-1.522 1.522-1.43-.635a.7.7 0 0 0-.653.044c-.83.51-1.73.884-2.675 1.109a.7.7 0 0 0-.493.431l-.561 1.458h-2.153l-.562-1.458a.7.7 0 0 0-.493-.432 9.1 9.1 0 0 1-2.674-1.108.7.7 0 0 0-.654-.044l-1.43.635-1.522-1.523.635-1.429a.7.7 0 0 0-.044-.654 9.1 9.1 0 0 1-1.109-2.674.7.7 0 0 0-.431-.494l-1.459-.561v-2.153l1.46-.562a.7.7 0 0 0 .43-.493 9.1 9.1 0 0 1 1.109-2.674.7.7 0 0 0 .044-.654l-.635-1.43 1.522-1.522 1.43.635a.7.7 0 0 0 .654-.044 9.1 9.1 0 0 1 2.674-1.108.7.7 0 0 0 .493-.431l.562-1.46h2.153l.561 1.46a.7.7 0 0 0 .493.43 9.1 9.1 0 0 1 2.674 1.11.7.7 0 0 0 .654.043l1.43-.635 1.522 1.523-.634 1.429a.7.7 0 0 0 .043.654c.511.83.884 1.729 1.11 2.674.053.226.214.41.43.494l1.459.56v2.154l-1.459.562a.7.7 0 0 0-.431.493M22.5 15.526a6.98 6.98 0 0 0-6.974 6.974 6.98 6.98 0 0 0 6.974 6.973 6.98 6.98 0 0 0 6.974-6.973 6.98 6.98 0 0 0-6.974-6.974m0 12.541a5.574 5.574 0 0 1-5.567-5.567 5.574 5.574 0 0 1 5.567-5.568 5.574 5.574 0 0 1 5.567 5.568 5.574 5.574 0 0 1-5.567 5.567m14.843 2.32a6.96 6.96 0 0 0-6.955 6.955 6.96 6.96 0 0 0 6.955 6.955 6.96 6.96 0 0 0 6.954-6.955 6.96 6.96 0 0 0-6.954-6.954m0 12.503a5.554 5.554 0 0 1-5.548-5.548 5.554 5.554 0 0 1 5.548-5.548 5.554 5.554 0 0 1 5.548 5.548 5.554 5.554 0 0 1-5.548 5.548m2.692-4.17a1.9 1.9 0 0 1-.445 1.506c-.355.41-.909.702-1.544.826v.246a.703.703 0 1 1-1.407 0v-.258c-.991-.222-1.75-.904-1.984-1.846a.703.703 0 1 1 1.364-.34c.163.653.851.87 1.389.857.47-.011.919-.174 1.118-.405a.5.5 0 0 0 .113-.416c-.024-.197-.08-.66-1.405-.876-1.907-.314-2.352-1.32-2.39-2.108-.052-1.067.666-1.962 1.795-2.25v-.27a.703.703 0 1 1 1.407 0v.265c.73.177 1.42.651 1.785 1.52a.703.703 0 1 1-1.296.544c-.278-.66-.959-.83-1.51-.704-.136.03-.807.214-.777.827.008.162.029.593 1.214.788 1.57.258 2.435.962 2.573 2.095M14.612 7.658A6.96 6.96 0 0 0 7.657.703 6.96 6.96 0 0 0 .703 7.657a6.96 6.96 0 0 0 6.954 6.954 6.96 6.96 0 0 0 6.955-6.954m-12.503 0a5.554 5.554 0 0 1 5.548-5.548 5.554 5.554 0 0 1 5.548 5.548 5.554 5.554 0 0 1-5.548 5.548A5.554 5.554 0 0 1 2.11 7.657m5.548 4.659a.703.703 0 0 1-.703-.703v-.258c-.991-.222-1.75-.904-1.984-1.846a.703.703 0 0 1 1.364-.34c.163.653.852.869 1.388.857.47-.011.92-.174 1.12-.405a.5.5 0 0 0 .112-.416c-.024-.197-.08-.66-1.405-.877-1.907-.313-2.353-1.319-2.39-2.107-.053-1.067.666-1.963 1.795-2.25v-.27a.703.703 0 0 1 1.407 0v.264c.73.178 1.42.652 1.785 1.52a.703.703 0 1 1-1.297.545c-.277-.66-.958-.83-1.51-.705-.135.03-.806.215-.776.827.008.163.029.594 1.214.789 1.57.257 2.435.962 2.573 2.095a1.9 1.9 0 0 1-.445 1.505c-.355.41-.91.702-1.545.825v.247a.703.703 0 0 1-.703.703m11.44-6.36a.7.7 0 0 1 .304-.536l2.344-1.608a.703.703 0 1 1 .795 1.159l-.552.38q.33.023.656.058a21.2 21.2 0 0 1 14.347 7.789 21.2 21.2 0 0 1 4.637 15.652.703.703 0 0 1-1.399-.147 19.8 19.8 0 0 0-4.331-14.62 19.8 19.8 0 0 0-14.212-7.344l.704.626a.703.703 0 1 1-.935 1.05l-2.124-1.89a.7.7 0 0 1-.234-.57m8.956 32.778a.7.7 0 0 1-.246.564l-2.162 1.845a.7.7 0 0 1-.992-.079.703.703 0 0 1 .079-.99l.51-.436C19.3 39.82 13.684 37.585 9.5 33.401A21.2 21.2 0 0 1 3.254 18.32a.703.703 0 0 1 1.406 0c0 10.986 8.937 19.923 19.923 19.923q.406 0 .814-.016l-.765-.55a.703.703 0 0 1 .82-1.142l2.309 1.658a.7.7 0 0 1 .293.542"/></g><defs><clipPath id="a"><path fill="#fff" d="M0 0h45v45H0z"/></clipPath></defs></svg>
